img/facebook.svg

<svg width="18" height="18" xmlns="http://www.w3.org/2000/svg"><path d="M16 0H2C.9 0 0 .9 0 2v14c0 1.101.9 2 2 2h7v-7H7V8.525h2v-2.05c0-2.164 1.212-3.684 3.766-3.684l1.803.002v2.605h-1.197c-.994 0-1.372.746-1.372 1.438v1.69h2.568L14 11h-2v7h4c1.1 0 2-.899 2-2V2c0-1.1-.9-2-2-2z" fill="#444A52"/></svg>

<?xml version="1.0" encoding="UTF-8"?>
<svg width="18px" height="18px" viewBox="0 0 18 18" version="1.1" xmlns="http://www.w3.org/2000/svg" xmlns:xlink="http://www.w3.org/1999/xlink">
    <!-- Generator: Sketch 43.2 (39069) - http://www.bohemiancoding.com/sketch -->
    <title>facebook</title>
    <desc>Created with Sketch.</desc>
    <defs></defs>
    <g id="Page-1" stroke="none" stroke-width="1" fill="none" fill-rule="evenodd">
        <g id="facebook" fill-rule="nonzero" fill="#444A52">
            <path d="M16,0 L2,0 C0.9,0 0,0.9 0,2 L0,16 C0,17.101 0.9,18 2,18 L9,18 L9,11 L7,11 L7,8.525 L9,8.525 L9,6.475 C9,4.311 10.212,2.791 12.766,2.791 L14.569,2.793 L14.569,5.398 L13.372,5.398 C12.378,5.398 12,6.144 12,6.836 L12,8.526 L14.568,8.526 L14,11 L12,11 L12,18 L16,18 C17.1,18 18,17.101 18,16 L18,2 C18,0.9 17.1,0 16,0 Z" id="Shape"></path>
        </g>
    </g>
</svg>
